!!!OTL: 818a. Kurz abgefertigt.
!!!ARE: Europa, Mitteleuropa, Deutschland, Schlesien
!!!SCT: E0818
!!!TXL: @@DE
!!!YEM: Copyright 1995, estate of Helmut Schaffrath.
**kern	**text
*ICvox	*
*M2/4	*
*k[f#c#g#]	*
*A:	*
{8e	Es
=1	=1
8a	ritt
8e	ein
8c#	Gſell
8e	ſpa-
=2	=2
4a	-ʒie-
8a}	-ren,
{8cc#	ſpa-
=3	=3
8b/	-ʒie-
8g#	-ren
8a	bei
8f#	der
=4	=4
4e	Nacht;
8r}	.
{8e	er
=5	=5
8cc#	ritt
8a	vor
8cc#	Lieb-
8a	-chens
=6	=6
4cc#	Fen-
8ee}	-ſter,
{8cc#	er
=7	=7
8b/	ritt
8g#	vor
8b/	Lieb-
8g#	-chens
=8	=8
4b	Fen-
8dd}	-ſter
{8dd	Ei,
=9	=9
8cc#	ſchläfft
8cc#	du
8b/	o-
8b/	-der
=10	=10
4a	wachſt?
8r}	.
==	==
!!!AGN: Kilt - Lied
!!!ONB: ESAC (Essen Associative Code) Database: ERK2
!!!AMT: simple duple
!!!AIN: vox
!!!EED: Helmut Schaffrath
!!!EEV: 1.0
!!!GTL: Tagelieder und Kiltgesaenge
!!!URL-scan: https://rosdok.uni-rostock.de/mcrviewer/recordIdentifier/rosdok_ppn745177662/iview2/phys_0629.iview2?x=193.8995864193107&y=1225.801360391546&scale=0.7029437510502773&rotation=0&layout=singlePageLayout
!!!ENC: Anna Maria Matuszewska
!!!EEV: 2024/12/18
*-	*-
